X: 112204
T: RORY McNAB
Q: "Reel."
R:  Reel.
%R: reel
B: James Kerr "Merry Melodies" v.1 p.12 s.2 #4
Z: 2017 John Chambers <jc:trillian.mit.edu>
M: C
L: 1/8
K: Em
ue |\
B2 (EG/A/) BGEG | AFDF dFDF |\
BGEG e/f/g/a/ ba | gef^d e/e/e e :|\
uB |\
egfe B/B/B (eB) | defe d/d/d (fd) |
egfe dBAF | GBAF E/E/E (EB) |\
egfe B/B/B (eB) | defe d/d/d (fd) |\
egfg efde | BdAF E/E/E "_Fine."E |]

% %newpage
%%sep 1 1 500
%%sep 1 1 500
%%center Set. 20th.

%%sep 1 1 500
%%sep 1 1 500

